icons/swc.svg

<svg xmlns="http://www.w3.org/2000/svg" version="1.1" viewBox="0 0 24 24"><path d="m5 3c-1.1 0-2 .9-2 2l0 14c0 1.1.9 2 2 2l14 0c1.1 0 2-.9 2-2l0-14c0-1.1-.9-2-2-2l-14 0zm12 3 0 2.4c-1.6 0-2.4.9-3.1 2.4l1.8 0 0 2.4-2.8 0c-.4 1-.9 2.1-1.6 2.9c-1.1 1.3-2.5 1.9-4.3 1.9l0-2.4c2.2 0 2.8-1.5 3.8-4c.5-1.3 1.1-2.6 1.9-3.6c1.1-1.3 2.5-2 4.3-2z" fill="#e53935" /></svg>

<?xml version="1.0" encoding="UTF-8" standalone="no"?>
<svg
   xmlns:dc="http://purl.org/dc/elements/1.1/"
   xmlns:cc="http://creativecommons.org/ns#"
   xmlns:rdf="http://www.w3.org/1999/02/22-rdf-syntax-ns#"
   xmlns:svg="http://www.w3.org/2000/svg"
   xmlns="http://www.w3.org/2000/svg"
   version="1.1"
   viewBox="0 0 24 24">
  <metadata
     id="metadata10">
    <rdf:RDF>
      <cc:Work
         rdf:about="">
        <dc:format>image/svg+xml</dc:format>
        <dc:type
           rdf:resource="http://purl.org/dc/dcmitype/StillImage" />
        <dc:title></dc:title>
      </cc:Work>
    </rdf:RDF>
  </metadata>
  <defs />
  <path
     d="M 5 3 C 3.9 3 3 3.9 3 5 L 3 19 C 3 20.1 3.9 21 5 21 L 19 21 C 20.1 21 21 20.1 21 19 L 21 5 C 21 3.9 20.1 3 19 3 L 5 3 z M 17 6 L 17 8.4 C 15.4 8.4 14.6 9.3 13.9 10.8 L 15.7 10.8 L 15.7 13.2 L 12.9 13.2 C 12.5 14.2 12 15.3 11.3 16.1 C 10.2 17.4 8.8 18 7 18 L 7 15.6 C 9.2 15.6 9.8 14.1 10.8 11.6 C 11.3 10.3 11.9 9 12.7 8 C 13.8 6.7 15.2 6 17 6 Z"
     fill="#e53935" />
</svg>
